flaticon/emoticons/kiss-2.svg

<svg xmlns="http://www.w3.org/2000/svg" width="32" height="32" viewBox="0 0 24 24">
    <path d="M5.585938 6.765625C4.402344 6.765625 3.4375 7.730469 3.4375 8.914062 3.4375 9.152344 3.628906 9.34375 3.867188 9.34375 4.105469 9.34375 4.296875 9.152344 4.296875 8.914062 4.296875 8.203125 4.875 7.625 5.585938 7.625 6.296875 7.625 6.875 8.203125 6.875 8.914062 6.875 9.152344 7.070312 9.34375 7.304688 9.34375 7.542969 9.34375 7.734375 9.152344 7.734375 8.914062 7.734375 7.730469 6.773438 6.765625 5.585938 6.765625zM15.472656 8.914062C15.472656 7.730469 14.507812 6.765625 13.324219 6.765625 12.136719 6.765625 11.171875 7.730469 11.171875 8.914062 11.171875 9.152344 11.367188 9.34375 11.601562 9.34375 11.839844 9.34375 12.03125 9.152344 12.03125 8.914062 12.03125 8.203125 12.613281 7.625 13.324219 7.625 14.03125 7.625 14.613281 8.203125 14.613281 8.914062 14.613281 9.152344 14.804688 9.34375 15.042969 9.34375 15.277344 9.34375 15.472656 9.152344 15.472656 8.914062zM14.289062 13.296875C14.289062 13.152344 14.21875 13.019531 14.097656 12.9375L12.273438 11.71875C12.074219 11.589844 11.808594 11.640625 11.675781 11.839844 11.542969 12.039062 11.597656 12.304688 11.792969 12.4375L13.085938 13.296875 11.792969 14.15625C11.675781 14.234375 11.601562 14.371094 11.601562 14.511719 11.601562 14.65625 11.675781 14.792969 11.792969 14.871094L13.085938 15.730469 11.792969 16.589844C11.597656 16.722656 11.542969 16.988281 11.675781 17.1875 11.757812 17.3125 11.894531 17.378906 12.035156 17.378906 12.113281 17.378906 12.199219 17.355469 12.273438 17.304688L14.097656 16.089844C14.21875 16.007812 14.289062 15.875 14.289062 15.730469 14.289062 15.585938 14.21875 15.453125 14.097656 15.375L12.808594 14.511719 14.097656 13.652344C14.21875 13.574219 14.289062 13.4375 14.289062 13.296875zM23.988281 18.828125C23.898438 17.917969 23.191406 17.234375 22.34375 17.234375 21.921875 17.234375 21.527344 17.394531 21.230469 17.667969 20.9375 17.390625 20.554688 17.234375 20.136719 17.234375 19.285156 17.234375 18.582031 17.917969 18.488281 18.828125 18.476562 18.917969 18.460938 19.128906 18.539062 19.445312 18.65625 19.925781 18.925781 20.363281 19.316406 20.703125L20.941406 22.128906C21.023438 22.199219 21.125 22.234375 21.226562 22.234375 21.324219 22.234375 21.425781 22.199219 21.503906 22.132812L23.164062 20.703125C23.554688 20.359375 23.824219 19.925781 23.941406 19.445312 24.019531 19.128906 24.003906 18.917969 23.988281 18.828125zM23.105469 19.242188C23.03125 19.550781 22.855469 19.832031 22.601562 20.054688L21.230469 21.238281 19.882812 20.058594C19.625 19.832031 19.449219 19.550781 19.375 19.242188 19.332031 19.070312 19.339844 18.96875 19.339844 18.96875 19.339844 18.953125 19.34375 18.9375 19.34375 18.921875 19.382812 18.511719 19.667969 18.09375 20.136719 18.09375 20.441406 18.09375 20.703125 18.269531 20.832031 18.570312 20.902344 18.726562 21.054688 18.828125 21.226562 18.828125 21.398438 18.828125 21.550781 18.726562 21.621094 18.566406 21.746094 18.28125 22.03125 18.09375 22.34375 18.09375 22.8125 18.09375 23.097656 18.511719 23.140625 18.953125 23.140625 18.953125 23.152344 19.058594 23.105469 19.242188zM23.105469 19.242188"/>
    <path d="M 20.570312 14.875 C 20.648438 14.558594 20.628906 14.347656 20.617188 14.257812 C 20.527344 13.347656 19.820312 12.664062 18.972656 12.664062 C 18.90625 12.664062 18.847656 12.675781 18.785156 12.683594 C 18.863281 12.1875 18.910156 11.699219 18.910156 11.21875 C 18.910156 6.003906 14.667969 1.765625 9.453125 1.765625 C 4.242188 1.765625 0 6.003906 0 11.21875 C 0 16.433594 4.242188 20.671875 9.453125 20.671875 C 12.382812 20.671875 15.140625 19.304688 16.929688 16.996094 L 17.570312 17.558594 C 17.652344 17.628906 17.753906 17.664062 17.855469 17.664062 C 17.953125 17.664062 18.054688 17.628906 18.132812 17.5625 L 19.789062 16.132812 C 20.183594 15.792969 20.453125 15.355469 20.570312 14.875 Z M 16.285156 16.429688 C 14.660156 18.554688 12.132812 19.8125 9.453125 19.8125 C 4.714844 19.8125 0.859375 15.957031 0.859375 11.21875 C 0.859375 6.480469 4.714844 2.625 9.453125 2.625 C 14.195312 2.625 18.050781 6.480469 18.050781 11.21875 C 18.050781 11.824219 17.976562 12.449219 17.835938 13.078125 C 17.796875 13.042969 17.753906 13.011719 17.710938 12.980469 C 17.679688 12.957031 17.648438 12.929688 17.613281 12.910156 C 17.5625 12.875 17.507812 12.851562 17.453125 12.824219 C 17.417969 12.808594 17.386719 12.789062 17.351562 12.777344 C 17.289062 12.75 17.222656 12.734375 17.15625 12.71875 C 17.125 12.710938 17.097656 12.699219 17.066406 12.691406 C 16.96875 12.675781 16.867188 12.664062 16.765625 12.664062 C 15.914062 12.664062 15.210938 13.347656 15.117188 14.257812 C 15.105469 14.347656 15.089844 14.558594 15.167969 14.875 C 15.253906 15.238281 15.429688 15.570312 15.675781 15.859375 C 15.757812 15.957031 15.847656 16.046875 15.945312 16.132812 Z M 19.734375 14.671875 C 19.660156 14.980469 19.484375 15.261719 19.226562 15.484375 L 17.855469 16.664062 L 16.511719 15.484375 C 16.425781 15.414062 16.355469 15.332031 16.289062 15.246094 C 16.152344 15.074219 16.054688 14.878906 16.003906 14.671875 C 15.96875 14.542969 15.96875 14.453125 15.96875 14.414062 C 15.96875 14.402344 15.96875 14.394531 15.96875 14.394531 C 15.96875 14.394531 15.96875 14.394531 15.96875 14.398438 C 15.96875 14.382812 15.972656 14.367188 15.972656 14.351562 C 16.011719 13.941406 16.296875 13.523438 16.765625 13.523438 C 17.070312 13.523438 17.332031 13.699219 17.460938 13.996094 C 17.527344 14.152344 17.683594 14.253906 17.855469 14.253906 C 18.027344 14.253906 18.179688 14.15625 18.25 13.996094 C 18.277344 13.933594 18.316406 13.878906 18.355469 13.824219 C 18.378906 13.796875 18.410156 13.769531 18.4375 13.742188 C 18.582031 13.609375 18.769531 13.523438 18.972656 13.523438 C 19.441406 13.523438 19.726562 13.941406 19.769531 14.382812 C 19.765625 14.382812 19.777344 14.488281 19.734375 14.671875 Z M 19.734375 14.671875"/>
</svg>

<svg xmlns="http://www.w3.org/2000/svg" width="32" height="32" viewBox="0 0 24 24">
    <path d="M5.586 6.766a2.152 2.152 0 0 0-2.149 2.148c0 .238.192.43.43.43s.43-.192.43-.43c0-.71.578-1.289 1.289-1.289.71 0 1.289.578 1.289 1.29 0 .237.195.429.43.429.238 0 .43-.192.43-.43a2.15 2.15 0 0 0-2.15-2.148zm0 0M15.473 8.914a2.152 2.152 0 0 0-2.149-2.148 2.153 2.153 0 0 0-2.152 2.148c0 .238.195.43.43.43.238 0 .43-.192.43-.43 0-.71.581-1.289 1.292-1.289.707 0 1.29.578 1.29 1.29 0 .237.19.429.429.429a.43.43 0 0 0 .43-.43zm0 0M14.29 13.297a.431.431 0 0 0-.192-.36l-1.825-1.218a.433.433 0 0 0-.48.719l1.293.859-1.293.86a.434.434 0 0 0-.191.355c0 .144.074.281.191.36l1.293.858-1.293.86a.432.432 0 0 0 .242.789.427.427 0 0 0 .238-.074l1.825-1.215a.431.431 0 0 0 0-.715l-1.29-.863 1.29-.86a.424.424 0 0 0 .191-.355zm0 0M23.988 18.828c-.09-.91-.797-1.594-1.644-1.594-.422 0-.817.16-1.114.434a1.575 1.575 0 0 0-1.093-.434c-.852 0-1.555.684-1.649 1.594-.011.09-.027.3.051.617.117.48.387.918.777 1.258l1.625 1.426a.437.437 0 0 0 .563.004l1.66-1.43c.39-.344.66-.777.777-1.258.079-.316.063-.527.047-.617zm-.883.414c-.074.309-.25.59-.503.813l-1.372 1.183-1.347-1.18a1.583 1.583 0 0 1-.508-.816c-.043-.172-.035-.273-.035-.273 0-.016.004-.032.004-.047.039-.41.324-.828.793-.828.304 0 .566.176.695.476a.43.43 0 0 0 .79-.004.792.792 0 0 1 .722-.472c.468 0 .754.418.797.86 0 0 .011.105-.036.288zm0 0"/>
    <path d="M20.57 14.875c.078-.316.059-.527.047-.617-.09-.91-.797-1.594-1.644-1.594-.067 0-.125.012-.188.02a9.43 9.43 0 0 0 .125-1.465c0-5.215-4.242-9.453-9.457-9.453C4.243 1.766 0 6.004 0 11.219c0 5.215 4.242 9.453 9.453 9.453a9.468 9.468 0 0 0 7.477-3.676l.64.563a.437.437 0 0 0 .563.003l1.656-1.43c.395-.339.664-.777.781-1.257zm-4.285 1.555a8.611 8.611 0 0 1-6.832 3.383c-4.738 0-8.594-3.856-8.594-8.594 0-4.739 3.856-8.594 8.594-8.594 4.742 0 8.598 3.855 8.598 8.594 0 .605-.074 1.23-.215 1.86-.04-.036-.082-.067-.125-.099-.031-.023-.063-.05-.098-.07-.05-.035-.105-.058-.16-.086-.035-.015-.066-.035-.101-.047-.063-.027-.13-.043-.196-.058-.031-.008-.058-.02-.09-.028a1.913 1.913 0 0 0-.3-.027c-.852 0-1.555.684-1.649 1.594-.012.09-.027.3.051.617.086.363.262.695.508.984.082.098.172.188.27.274zm3.45-1.758c-.075.308-.25.59-.508.812l-1.372 1.18-1.343-1.18a1.426 1.426 0 0 1-.223-.238 1.497 1.497 0 0 1-.285-.574c-.035-.129-.035-.219-.035-.258v-.02.004c0-.015.004-.03.004-.046.039-.41.324-.829.793-.829.304 0 .566.176.695.473a.428.428 0 0 0 .394.258.426.426 0 0 0 .395-.258.966.966 0 0 1 .105-.172c.024-.027.055-.054.082-.082a.795.795 0 0 1 .536-.219c.468 0 .754.418.797.86-.004 0 .007.105-.036.289zm0 0"/>
</svg>
